assets/icons/regular/envelope.svg

<svg xmlns="http://www.w3.org/2000/svg" viewBox="0 0 512 512"><!--! Font Awesome Free 6.6.0 by @fontawesome - https://fontawesome.com License - https://fontawesome.com/license/free (Icons: CC BY 4.0, Fonts: SIL OFL 1.1, Code: MIT License) Copyright 2024 Fonticons, Inc. --><path d="M64 112c-8.8 0-16 7.2-16 16l0 22.1L220.5 291.7c20.7 17 50.4 17 71.1 0L464 150.1l0-22.1c0-8.8-7.2-16-16-16L64 112zM48 212.2L48 384c0 8.8 7.2 16 16 16l384 0c8.8 0 16-7.2 16-16l0-171.8L322 328.8c-38.4 31.5-93.7 31.5-132 0L48 212.2zM0 128C0 92.7 28.7 64 64 64l384 0c35.3 0 64 28.7 64 64l0 256c0 35.3-28.7 64-64 64L64 448c-35.3 0-64-28.7-64-64L0 128z"/></svg>

<svg xmlns="http://www.w3.org/2000/svg" viewBox="0 0 512 512"><!--! Font Awesome Pro 6.2.0 by @fontawesome - https://fontawesome.com License - https://fontawesome.com/license (Commercial License) Copyright 2022 Fonticons, Inc. --><path d="M0 128C0 92.65 28.65 64 64 64H448C483.3 64 512 92.65 512 128V384C512 419.3 483.3 448 448 448H64C28.65 448 0 419.3 0 384V128zM48 128V150.1L220.5 291.7C241.1 308.7 270.9 308.7 291.5 291.7L464 150.1V127.1C464 119.2 456.8 111.1 448 111.1H64C55.16 111.1 48 119.2 48 127.1L48 128zM48 212.2V384C48 392.8 55.16 400 64 400H448C456.8 400 464 392.8 464 384V212.2L322 328.8C283.6 360.3 228.4 360.3 189.1 328.8L48 212.2z"/></svg>
